zondicons/svg/text-box.svg

<svg xmlns="http://www.w3.org/2000/svg" viewBox="0 0 20 20"><path d="M0 0h6v6H0V0zm2 2v2h2V2H2zm12-2h6v6h-6V0zm2 2v2h2V2h-2zm-2 12h6v6h-6v-6zm2 2v2h2v-2h-2zM0 14h6v6H0v-6zm2 2v2h2v-2H2zM6 2h8v2H6V2zm0 14h8v2H6v-2zM16 6h2v8h-2V6zM2 6h2v8H2V6zm5 1h6v2H7V7zm2 2h2v4H9V9z"/></svg>

<svg width="20px" height="20px" viewBox="0 0 20 20" version="1.1" xmlns="http://www.w3.org/2000/svg" xmlns:xlink="http://www.w3.org/1999/xlink"><title>text-box</title><desc>Created with Sketch.</desc><defs></defs><g id="Page-1" stroke="none" stroke-width="1" fill="none" fill-rule="evenodd"><g id="text-box" fill="#000000"><path d="M0,0 L6,0 L6,6 L0,6 L0,0 Z M2,2 L4,2 L4,4 L2,4 L2,2 Z M14,0 L20,0 L20,6 L14,6 L14,0 Z M16,2 L18,2 L18,4 L16,4 L16,2 Z M14,14 L20,14 L20,20 L14,20 L14,14 Z M16,16 L18,16 L18,18 L16,18 L16,16 Z M0,14 L6,14 L6,20 L0,20 L0,14 Z M2,16 L4,16 L4,18 L2,18 L2,16 Z M6,2 L14,2 L14,4 L6,4 L6,2 Z M6,16 L14,16 L14,18 L6,18 L6,16 Z M16,6 L18,6 L18,14 L16,14 L16,6 Z M2,6 L4,6 L4,14 L2,14 L2,6 Z M7,7 L13,7 L13,9 L7,9 L7,7 Z M9,9 L11,9 L11,13 L9,13 L9,9 Z" id="Combined-Shape"></path></g></g></svg>
